assets/images/contact_edit_pressed.svg

<?xml version="1.0" encoding="UTF-8"?>
<svg width="22px" height="19px" viewBox="0 0 22 19" version="1.1" xmlns="http://www.w3.org/2000/svg" xmlns:xlink="http://www.w3.org/1999/xlink">
    <!-- Generator: Sketch 40.3 (33839) - http://www.bohemiancoding.com/sketch -->
    <title>contact_edit_clic</title>
    <desc>Created with Sketch.</desc>
    <defs></defs>
    <g id="Symbols" stroke="none" stroke-width="1" fill="none" fill-rule="evenodd" stroke-linecap="round">
        <g id="contact_edit_clic" class="color-i-stroke" stroke="#FE5E00">
            <path d="M8.54029156,2.5 C10.850165,2.5 12.7226588,4.39098325 12.7226588,6.72356259 C12.7226588,7.83995271 12.2940348,8.85494372 11.5935908,9.61033703 C11.4952898,9.71653609 11.5340928,9.69793625 11.4252454,9.79333541 L11.5997595,9.91213435 C17.938579,12.6985097 16.3132304,17.3824682 16.3132304,17.3824682 C12.2309551,18.6900566 8.54685822,18.4888584 8.54685822,18.4888584 L8.45333302,18.4888584 C8.45333302,18.4886584 4.7688382,18.6900566 0.686761802,17.3824682 C0.686761802,17.3824682 -0.938586743,12.6985097 5.40043177,9.91213435 L5.57494581,9.79333541 C5.4660984,9.69793625 5.50490141,9.71653609 5.40660046,9.61033703 C4.70635541,8.85494372 4.27753243,7.83995271 4.27753243,6.72356259 C4.27753243,4.39098325 6.15002629,2.5 8.45989968,2.5 L8.54029156,2.5 L8.54029156,2.5 Z" stroke-linejoin="round"></path>
            <path d="M15.75,3.5 L21.5833333,3.5"></path>
            <path d="M15.75,6.5 L21.5833333,6.5"></path>
            <path d="M15.75,0.5 L21.5833333,0.5"></path>
        </g>
    </g>
</svg>

<?xml version="1.0" encoding="UTF-8" standalone="no"?>
<svg
   xmlns:dc="http://purl.org/dc/elements/1.1/"
   xmlns:cc="http://creativecommons.org/ns#"
   xmlns:rdf="http://www.w3.org/1999/02/22-rdf-syntax-ns#"
   xmlns:svg="http://www.w3.org/2000/svg"
   xmlns="http://www.w3.org/2000/svg"
   xmlns:sodipodi="http://sodipodi.sourceforge.net/DTD/sodipodi-0.dtd"
   xmlns:inkscape="http://www.inkscape.org/namespaces/inkscape"
   width="22"
   height="22"
   viewBox="0 0 22 22"
   version="1.1"
   id="svg18"
   sodipodi:docname="contact_edit_pressed.svg"
   inkscape:version="0.92.2 2405546, 2018-03-11">
  <metadata
     id="metadata22">
    <rdf:RDF>
      <cc:Work
         rdf:about="">
        <dc:format>image/svg+xml</dc:format>
        <dc:type
           rdf:resource="http://purl.org/dc/dcmitype/StillImage" />
        <dc:title>contact_edit_clic</dc:title>
      </cc:Work>
    </rdf:RDF>
  </metadata>
  <sodipodi:namedview
     pagecolor="#ffffff"
     bordercolor="#666666"
     borderopacity="1"
     objecttolerance="10"
     gridtolerance="10"
     guidetolerance="10"
     inkscape:pageopacity="0"
     inkscape:pageshadow="2"
     inkscape:window-width="868"
     inkscape:window-height="480"
     id="namedview20"
     showgrid="false"
     inkscape:zoom="12.421053"
     inkscape:cx="11"
     inkscape:cy="9.5"
     inkscape:window-x="0"
     inkscape:window-y="35"
     inkscape:window-maximized="0"
     inkscape:current-layer="svg18" />
  <!-- Generator: Sketch 40.3 (33839) - http://www.bohemiancoding.com/sketch -->
  <title
     id="title2">contact_edit_clic</title>
  <desc
     id="desc4">Created with Sketch.</desc>
  <defs
     id="defs6" />
  <g
     id="Symbols"
     style="fill:none;fill-rule:evenodd;stroke:none;stroke-width:1;stroke-linecap:round"
     transform="translate(0,1.5)">
    <g
       id="contact_edit_clic"
       class="color-i-stroke"
       style="stroke:#fe5e00">
      <path
         d="m 8.5402916,2.5 c 2.3098734,0 4.1823674,1.8909832 4.1823674,4.2235626 0,1.1163901 -0.428624,2.1313811 -1.129068,2.8867744 -0.0983,0.1061991 -0.0595,0.087599 -0.168346,0.1829984 l 0.174514,0.118799 c 6.33882,2.7863756 4.713471,7.4703336 4.713471,7.4703336 -4.082275,1.307589 -7.7663718,1.10639 -7.7663718,1.10639 H 8.453333 c 0,-2e-4 -3.6844948,0.201199 -7.7665712,-1.10639 0,0 -1.62534854,-4.683958 4.71367,-7.4703336 l 0.174514,-0.118799 C 5.4660984,9.6979363 5.5049014,9.7165361 5.4066005,9.610337 4.7063554,8.8549437 4.2775324,7.8399527 4.2775324,6.7235626 4.2775324,4.3909832 6.1500263,2.5 8.4598997,2.5 Z"
         id="path8"
         inkscape:connector-curvature="0"
         style="stroke-linejoin:round" />
      <path
         d="m 15.75,3.5 h 5.833333"
         id="path10"
         inkscape:connector-curvature="0" />
      <path
         d="m 15.75,6.5 h 5.833333"
         id="path12"
         inkscape:connector-curvature="0" />
      <path
         d="m 15.75,0.5 h 5.833333"
         id="path14"
         inkscape:connector-curvature="0" />
    </g>
  </g>
</svg>
